src/icons/svg/message.svg

<?xml version="1.0" encoding="UTF-8" standalone="no"?>
<svg width="128px" height="128px" viewBox="0 0 128 128" version="1.1" xmlns="http://www.w3.org/2000/svg" xmlns:xlink="http://www.w3.org/1999/xlink">
    <!-- Generator: Sketch 40 (33762) - http://www.bohemiancoding.com/sketch -->
    <title>message</title>
    <desc>Created with Sketch.</desc>
    <defs></defs>
    <g id="Page-1" stroke="none" stroke-width="1" fill="none" fill-rule="evenodd">
        <g id="message" fill="#000000">
            <path d="M0,20.9669565 L0,80.5565217 C0,92.146087 8.5375,101.523478 19.075,101.523478 L47.6875,101.523478 L48.6875,128 L76.8,101.523478 L108.925,101.523478 C119.4625,101.523478 128,92.146087 128,80.5565217 L128,20.9669565 C128,9.3773913 119.4625,0 108.925,0 L19.075,0 C8.5375,0 0,9.3773913 0,20.9669565 L0,20.9669565 Z M82.325,54.066087 C82.325,48.5426087 86.3375,44.1321739 91.3625,44.1321739 C96.3875,44.1321739 100.4,48.5426087 100.4,54.066087 C100.4,59.5895652 96.375,64 91.3625,64 C86.3375,64 82.325,59.5895652 82.325,54.066087 L82.325,54.066087 Z M54.7125,54.066087 C54.7125,48.5426087 58.725,44.1321739 63.75,44.1321739 C68.775,44.1321739 72.7875,48.5426087 72.7875,54.066087 C72.7875,59.5895652 68.7625,64 63.75,64 C58.725,64 54.7125,59.5895652 54.7125,54.066087 L54.7125,54.066087 Z M27.6125,54.066087 C27.6125,48.5426087 31.625,44.1321739 36.65,44.1321739 C41.675,44.1321739 45.6875,48.5426087 45.6875,54.066087 C45.6875,59.5895652 41.6625,64 36.6375,64 C31.625,64 27.6125,59.5895652 27.6125,54.066087 L27.6125,54.066087 Z" id="Shape"></path>
        </g>
    </g>
</svg>

<svg width="128" height="128" xmlns="http://www.w3.org/2000/svg"><path d="M0 20.967v59.59c0 11.59 8.537 20.966 19.075 20.966h28.613l1 26.477L76.8 101.523h32.125c10.538 0 19.075-9.377 19.075-20.966v-59.59C128 9.377 119.463 0 108.925 0h-89.85C8.538 0 0 9.377 0 20.967zm82.325 33.1c0-5.524 4.013-9.935 9.037-9.935 5.026 0 9.038 4.41 9.038 9.934 0 5.524-4.025 9.934-9.038 9.934-5.024 0-9.037-4.41-9.037-9.934zm-27.613 0c0-5.524 4.013-9.935 9.038-9.935s9.037 4.41 9.037 9.934c0 5.524-4.025 9.934-9.037 9.934-5.025 0-9.038-4.41-9.038-9.934zm-27.1 0c0-5.524 4.013-9.935 9.038-9.935s9.038 4.41 9.038 9.934c0 5.524-4.026 9.934-9.05 9.934-5.013 0-9.025-4.41-9.025-9.934z" fill-rule="evenodd"/></svg>
